src/assets/Devices/Steam Deck Front.svg

<svg width="1766" height="698" viewBox="0 0 1766 698" fill="none" xmlns="http://www.w3.org/2000/svg">
<path d="M20.1645 70.306C1.5714 101.369 2.24767 143.544 3.60021 227.893L6.57658 413.51C8.31457 521.898 9.18356 576.091 34.0895 615.799C48.0318 638.027 66.9869 656.681 89.4359 670.265C129.538 694.531 183.739 694.531 292.14 694.531H1473.03C1581.43 694.531 1635.63 694.531 1675.73 670.265C1698.18 656.681 1717.13 638.027 1731.08 615.799C1755.98 576.091 1756.85 521.898 1758.59 413.51L1761.57 227.893C1762.92 143.544 1763.59 101.369 1745 70.306C1734.6 52.9321 1720.2 38.2965 1702.99 27.62C1672.23 8.53125 1630.05 8.53125 1545.69 8.53125H219.472C135.113 8.53125 92.9328 8.53125 62.1716 27.62C44.9666 38.2965 30.5638 52.9321 20.1645 70.306Z" stroke="white" stroke-width="6"/>
<rect x="166.082" y="251.531" width="187" height="186" rx="24" stroke="white" stroke-width="3"/>
<rect x="1411.08" y="251.531" width="187" height="186" rx="24" stroke="white" stroke-width="3"/>
<path d="M181.082 51.0312C181.082 44.68 186.231 39.5312 192.582 39.5312H220.582C226.933 39.5312 232.082 44.68 232.082 51.0312V51.0312C232.082 57.3825 226.933 62.5312 220.582 62.5312H192.582C186.231 62.5312 181.082 57.3825 181.082 51.0312V51.0312Z" stroke="white" stroke-width="3"/>
<path d="M1532.08 51.0312C1532.08 44.68 1537.23 39.5312 1543.58 39.5312H1571.58C1577.93 39.5312 1583.08 44.68 1583.08 51.0312V51.0312C1583.08 57.3825 1577.93 62.5312 1571.58 62.5312H1543.58C1537.23 62.5312 1532.08 57.3825 1532.08 51.0312V51.0312Z" stroke="white" stroke-width="3"/>
<path d="M1411.08 493.031C1411.08 482.814 1419.36 474.531 1429.58 474.531H1485.58C1495.8 474.531 1504.08 482.814 1504.08 493.031V493.031C1504.08 503.249 1495.8 511.531 1485.58 511.531H1429.58C1419.36 511.531 1411.08 503.249 1411.08 493.031V493.031Z" stroke="white"/>
<path d="M260.082 493.031C260.082 482.814 268.365 474.531 278.582 474.531H334.582C344.799 474.531 353.082 482.814 353.082 493.031V493.031C353.082 503.249 344.799 511.531 334.582 511.531H278.582C268.365 511.531 260.082 503.249 260.082 493.031V493.031Z" stroke="white"/>
<g opacity="0.5">
<path d="M259.082 550.031C259.082 548.098 260.649 546.531 262.582 546.531H276.582C278.515 546.531 280.082 548.098 280.082 550.031V550.031C280.082 551.964 278.515 553.531 276.582 553.531H262.582C260.649 553.531 259.082 551.964 259.082 550.031V550.031Z" stroke="white"/>
<path d="M271.082 568.031C271.082 566.098 272.649 564.531 274.582 564.531H288.582C290.515 564.531 292.082 566.098 292.082 568.031V568.031C292.082 569.964 290.515 571.531 288.582 571.531H274.582C272.649 571.531 271.082 569.964 271.082 568.031V568.031Z" stroke="white"/>
<path d="M285.082 550.031C285.082 548.098 286.649 546.531 288.582 546.531H302.582C304.515 546.531 306.082 548.098 306.082 550.031V550.031C306.082 551.964 304.515 553.531 302.582 553.531H288.582C286.649 553.531 285.082 551.964 285.082 550.031V550.031Z" stroke="white"/>
<path d="M285.082 586.031C285.082 584.098 286.649 582.531 288.582 582.531H302.582C304.515 582.531 306.082 584.098 306.082 586.031V586.031C306.082 587.964 304.515 589.531 302.582 589.531H288.582C286.649 589.531 285.082 587.964 285.082 586.031V586.031Z" stroke="white"/>
<path d="M311.082 550.031C311.082 548.098 312.649 546.531 314.582 546.531H328.582C330.515 546.531 332.082 548.098 332.082 550.031V550.031C332.082 551.964 330.515 553.531 328.582 553.531H314.582C312.649 553.531 311.082 551.964 311.082 550.031V550.031Z" stroke="white"/>
<path d="M297.082 568.031C297.082 566.098 298.649 564.531 300.582 564.531H314.582C316.515 564.531 318.082 566.098 318.082 568.031V568.031C318.082 569.964 316.515 571.531 314.582 571.531H300.582C298.649 571.531 297.082 569.964 297.082 568.031V568.031Z" stroke="white"/>
<path d="M337.082 550.031C337.082 548.098 338.649 546.531 340.582 546.531H354.582C356.515 546.531 358.082 548.098 358.082 550.031V550.031C358.082 551.964 356.515 553.531 354.582 553.531H340.582C338.649 553.531 337.082 551.964 337.082 550.031V550.031Z" stroke="white"/>
<path d="M311.082 586.031C311.082 584.098 312.649 582.531 314.582 582.531H328.582C330.515 582.531 332.082 584.098 332.082 586.031V586.031C332.082 587.964 330.515 589.531 328.582 589.531H314.582C312.649 589.531 311.082 587.964 311.082 586.031V586.031Z" stroke="white"/>
<path d="M323.082 568.031C323.082 566.098 324.649 564.531 326.582 564.531H354.582C356.515 564.531 358.082 566.098 358.082 568.031V568.031C358.082 569.964 356.515 571.531 354.582 571.531H326.582C324.649 571.531 323.082 569.964 323.082 568.031V568.031Z" stroke="white"/>
<path d="M337.082 586.031C337.082 584.098 338.649 582.531 340.582 582.531H354.582C356.515 582.531 358.082 584.098 358.082 586.031V586.031C358.082 587.964 356.515 589.531 354.582 589.531H340.582C338.649 589.531 337.082 587.964 337.082 586.031V586.031Z" stroke="white"/>
</g>
<g opacity="0.5">
<path d="M1507.08 550.031C1507.08 548.098 1505.52 546.531 1503.58 546.531H1489.58C1487.65 546.531 1486.08 548.098 1486.08 550.031V550.031C1486.08 551.964 1487.65 553.531 1489.58 553.531H1503.58C1505.52 553.531 1507.08 551.964 1507.08 550.031V550.031Z" stroke="white"/>
<path d="M1495.08 568.031C1495.08 566.098 1493.52 564.531 1491.58 564.531H1477.58C1475.65 564.531 1474.08 566.098 1474.08 568.031V568.031C1474.08 569.964 1475.65 571.531 1477.58 571.531H1491.58C1493.52 571.531 1495.08 569.964 1495.08 568.031V568.031Z" stroke="white"/>
<path d="M1481.08 550.031C1481.08 548.098 1479.52 546.531 1477.58 546.531H1463.58C1461.65 546.531 1460.08 548.098 1460.08 550.031V550.031C1460.08 551.964 1461.65 553.531 1463.58 553.531H1477.58C1479.52 553.531 1481.08 551.964 1481.08 550.031V550.031Z" stroke="white"/>
<path d="M1481.08 586.031C1481.08 584.098 1479.52 582.531 1477.58 582.531H1463.58C1461.65 582.531 1460.08 584.098 1460.08 586.031V586.031C1460.08 587.964 1461.65 589.531 1463.58 589.531H1477.58C1479.52 589.531 1481.08 587.964 1481.08 586.031V586.031Z" stroke="white"/>
<path d="M1455.08 550.031C1455.08 548.098 1453.52 546.531 1451.58 546.531H1437.58C1435.65 546.531 1434.08 548.098 1434.08 550.031V550.031C1434.08 551.964 1435.65 553.531 1437.58 553.531H1451.58C1453.52 553.531 1455.08 551.964 1455.08 550.031V550.031Z" stroke="white"/>
<path d="M1469.08 568.031C1469.08 566.098 1467.52 564.531 1465.58 564.531H1451.58C1449.65 564.531 1448.08 566.098 1448.08 568.031V568.031C1448.08 569.964 1449.65 571.531 1451.58 571.531H1465.58C1467.52 571.531 1469.08 569.964 1469.08 568.031V568.031Z" stroke="white"/>
<path d="M1429.08 550.031C1429.08 548.098 1427.52 546.531 1425.58 546.531H1411.58C1409.65 546.531 1408.08 548.098 1408.08 550.031V550.031C1408.08 551.964 1409.65 553.531 1411.58 553.531H1425.58C1427.52 553.531 1429.08 551.964 1429.08 550.031V550.031Z" stroke="white"/>
<path d="M1455.08 586.031C1455.08 584.098 1453.52 582.531 1451.58 582.531H1437.58C1435.65 582.531 1434.08 584.098 1434.08 586.031V586.031C1434.08 587.964 1435.65 589.531 1437.58 589.531H1451.58C1453.52 589.531 1455.08 587.964 1455.08 586.031V586.031Z" stroke="white"/>
<path d="M1443.08 568.031C1443.08 566.098 1441.52 564.531 1439.58 564.531H1411.58C1409.65 564.531 1408.08 566.098 1408.08 568.031V568.031C1408.08 569.964 1409.65 571.531 1411.58 571.531H1439.58C1441.52 571.531 1443.08 569.964 1443.08 568.031V568.031Z" stroke="white"/>
<path d="M1429.08 586.031C1429.08 584.098 1427.52 582.531 1425.58 582.531H1411.58C1409.65 582.531 1408.08 584.098 1408.08 586.031V586.031C1408.08 587.964 1409.65 589.531 1411.58 589.531H1425.58C1427.52 589.531 1429.08 587.964 1429.08 586.031V586.031Z" stroke="white"/>
</g>
<circle opacity="0.3" cx="1483.08" cy="149.531" r="82" stroke="white"/>
<circle cx="1483.08" cy="149.531" r="59" stroke="white" stroke-width="3"/>
<circle cx="1484.08" cy="149.531" r="41" stroke="white"/>
<circle cx="278.082" cy="149.531" r="41" stroke="white"/>
<circle cx="277.082" cy="149.531" r="59" stroke="white" stroke-width="3"/>
<circle opacity="0.3" cx="277.082" cy="149.531" r="82" stroke="white"/>
<path d="M48.6855 102.259C49.1657 100.617 50.6994 99.5312 52.4108 99.5312H77.282C81.7625 99.5312 84.0027 99.5312 85.714 98.6593C87.2193 97.8923 88.4431 96.6685 89.2101 95.1632C90.082 93.4519 90.082 91.2117 90.082 86.7313V61.86C90.082 60.1487 91.1673 58.6149 92.8099 58.1347C98.6063 56.4401 104.738 55.5312 111.082 55.5312C117.426 55.5312 123.558 56.4401 129.354 58.1347C130.997 58.6149 132.082 60.1487 132.082 61.86V86.7313C132.082 91.2117 132.082 93.4519 132.954 95.1632C133.721 96.6685 134.945 97.8923 136.45 98.6593C138.161 99.5312 140.402 99.5312 144.882 99.5312H169.753C171.465 99.5312 172.998 100.617 173.479 102.259C175.173 108.056 176.082 114.187 176.082 120.531C176.082 126.875 175.173 133.007 173.479 138.803C172.998 140.446 171.465 141.531 169.753 141.531H144.882C140.402 141.531 138.161 141.531 136.45 142.403C134.945 143.17 133.721 144.394 132.954 145.899C132.082 147.611 132.082 149.851 132.082 154.331V179.203C132.082 180.914 130.997 182.448 129.354 182.928C123.558 184.622 117.426 185.531 111.082 185.531C104.738 185.531 98.6063 184.622 92.8099 182.928C91.1673 182.448 90.082 180.914 90.082 179.203V154.331C90.082 149.851 90.082 147.611 89.2101 145.899C88.4431 144.394 87.2193 143.17 85.714 142.403C84.0027 141.531 81.7625 141.531 77.282 141.531H52.4108C50.6994 141.531 49.1657 140.446 48.6855 138.803C46.9909 133.007 46.082 126.875 46.082 120.531C46.082 114.187 46.9909 108.056 48.6855 102.259Z" stroke="white" stroke-width="3"/>
<circle cx="1656.08" cy="69.5312" r="26" stroke="white" stroke-width="3"/>
<circle cx="1604.08" cy="121.531" r="26" stroke="white" stroke-width="3"/>
<circle cx="1707.08" cy="121.531" r="26" stroke="white" stroke-width="3"/>
<circle cx="1656.08" cy="172.531" r="26" stroke="white" stroke-width="3"/>
<path d="M1654.56 79.5312V72.1484L1647.9 59.625H1651.98L1655.89 67.2129C1656.02 67.4681 1656.13 67.7096 1656.23 67.9375C1656.33 68.1562 1656.43 68.3841 1656.52 68.6211H1656.6C1656.69 68.3841 1656.79 68.1562 1656.89 67.9375C1656.99 67.7096 1657.1 67.4681 1657.23 67.2129L1661.18 59.625H1664.84L1658.27 72.0391V79.5312H1654.56Z" fill="white"/>
<path d="M1646.77 182.531L1653.89 162.557H1657.8L1664.95 182.531H1661.11L1656.2 168.107C1656.09 167.779 1656 167.474 1655.93 167.191C1655.85 166.909 1655.79 166.631 1655.72 166.357H1655.63C1655.57 166.631 1655.51 166.909 1655.44 167.191C1655.36 167.474 1655.27 167.779 1655.16 168.107L1650.29 182.531H1646.77ZM1650.47 177.91L1651.28 175.203H1660.25L1661.05 177.91H1650.47Z" fill="white"/>
<path d="M1595.95 131.531L1602.88 120.238H1603.48L1608.46 111.625H1612.13L1605.62 122.48H1605.05L1599.69 131.531H1595.95ZM1596.27 111.625L1600.44 111.639L1605.5 120.225H1605.56L1612.53 131.531H1608.33L1602.95 122.521H1602.9L1596.27 111.625Z" fill="white"/>
<path d="M1700.93 131.531V111.625H1708.06C1710.12 111.625 1711.7 112.053 1712.82 112.91C1713.94 113.758 1714.5 115.057 1714.5 116.807C1714.5 117.919 1714.25 118.835 1713.74 119.555C1713.24 120.275 1712.6 120.767 1711.84 121.031V121.086C1712.79 121.35 1713.57 121.883 1714.18 122.686C1714.79 123.488 1715.09 124.549 1715.09 125.871C1715.09 127.667 1714.49 129.061 1713.27 130.055C1712.07 131.039 1710.46 131.531 1708.45 131.531H1700.93ZM1704.56 128.865H1708.13C1709.25 128.865 1710.08 128.578 1710.61 128.004C1711.14 127.43 1711.4 126.65 1711.4 125.666C1711.4 124.691 1711.14 123.911 1710.61 123.328C1710.08 122.745 1709.25 122.453 1708.13 122.453H1704.56V128.865ZM1704.56 120.02H1707.76C1708.88 120.02 1709.68 119.769 1710.17 119.268C1710.66 118.757 1710.91 118.046 1710.91 117.135C1710.91 116.232 1710.66 115.54 1710.17 115.057C1709.68 114.574 1708.88 114.332 1707.76 114.332H1704.56V120.02Z" fill="white"/>
<rect x="439.082" y="76.5312" width="888" height="556" stroke="white"/>
<rect x="373.082" y="39.5312" width="1016" height="629" rx="6" stroke="white" stroke-width="3"/>
<path d="M6.34163 241.45C5.85903 204.048 5.49786 176.027 7.03638 153.78C8.57449 131.538 12.0093 115.112 19.0938 100.892C31.5806 75.8284 51.7422 55.405 76.6427 42.5959C90.7702 35.3285 107.151 31.682 129.37 29.8571C151.596 28.0316 179.619 28.0312 217.024 28.0312H1548.14C1585.54 28.0312 1613.57 28.0316 1635.79 29.8571C1658.01 31.682 1674.39 35.3285 1688.52 42.5959C1713.42 55.405 1733.58 75.8284 1746.07 100.892C1753.15 115.112 1756.59 131.538 1758.13 153.78C1759.66 176.027 1759.3 204.048 1758.82 241.45L1758.7 251.031H1699.08H1699.06C1690.68 251.031 1684.36 251.031 1679.34 251.442C1674.3 251.853 1670.53 252.679 1667.23 254.356C1661.5 257.28 1656.83 261.946 1653.91 267.685C1652.23 270.975 1651.4 274.753 1650.99 279.787C1650.58 284.81 1650.58 291.127 1650.58 299.509V299.531V393.531C1650.58 398.627 1650.58 404.958 1650.67 408.698C1650.67 426.758 1640.27 450.776 1624.56 477.431C1608.86 504.063 1587.93 533.233 1566.98 561.566C1562.08 568.199 1557.17 574.786 1552.33 581.284C1536.51 602.535 1521.4 622.83 1509.36 640.637C1501.5 652.263 1494.94 662.843 1490.34 671.948C1485.89 680.777 1483.24 688.281 1483.1 694.031H280.068C279.924 688.162 277.28 680.58 272.82 671.702C268.224 662.553 261.664 651.964 253.804 640.35C241.737 622.52 226.582 602.241 210.717 581.014C205.917 574.591 201.052 568.08 196.187 561.525C175.24 533.296 154.308 504.221 138.612 477.574C122.904 450.906 112.5 426.763 112.498 408.37C112.581 404.706 112.581 398.483 112.581 393.537V393.531V299.531V299.507C112.581 291.127 112.581 284.809 112.171 279.787C111.76 274.753 110.934 270.975 109.257 267.685C106.333 261.946 101.667 257.28 95.9281 254.356C92.6372 252.679 88.8595 251.853 83.826 251.442C78.803 251.031 72.4856 251.031 64.1047 251.031H64.0813H6.46526L6.34163 241.45Z" stroke="white"/>
<path d="M132.582 1.53125C100.082 1.53125 67.082 10.5312 51.582 35.0312C75.582 10.5312 138.082 8.03125 161.582 8.03125C185.082 8.03125 285.082 11.5312 283.082 8.03125C281.082 4.53125 272.582 1.53125 263.582 1.53125H132.582Z" stroke="white" stroke-width="2"/>
<path d="M1629.61 1.53125C1662.11 1.53125 1695.11 10.5312 1710.61 35.0312C1686.61 10.5312 1624.11 8.03125 1600.61 8.03125C1577.11 8.03125 1477.11 11.5312 1479.11 8.03125C1481.11 4.53125 1489.61 1.53125 1498.61 1.53125H1629.61Z" stroke="white" stroke-width="2"/>
<rect x="204.472" y="49.8592" width="11.037" height="7.42558" stroke="white" stroke-width="1.58365"/>
<path fill-rule="evenodd" clip-rule="evenodd" d="M199.584 45.5837H209.037V47.9415H210.621V45.5837V44H209.037H199.584H198V45.5837V51.4256V53.0092H199.584H202.417V51.4256H199.584V45.5837Z" fill="white"/>
<path fill-rule="evenodd" clip-rule="evenodd" d="M1550 45H1565V46.7143H1550V45ZM1550 50.1429H1565V51.8571H1550V50.1429ZM1565 55.2857H1550V57H1565V55.2857Z" fill="white"/>
</svg>

<svg width="1766" height="698" fill="none" xmlns="http://www.w3.org/2000/svg"><path d="M20.165 70.306C1.57 101.369 2.247 143.544 3.6 227.893L6.577 413.51C8.315 521.898 9.184 576.091 34.09 615.799a168.003 168.003 0 0 0 55.346 54.466c40.102 24.266 94.303 24.266 202.704 24.266h1180.89c108.4 0 162.6 0 202.7-24.266a168.077 168.077 0 0 0 55.35-54.466c24.9-39.708 25.77-93.901 27.51-202.289l2.98-185.617c1.35-84.349 2.02-126.524-16.57-157.587a126.97 126.97 0 0 0-42.01-42.686c-30.76-19.089-72.94-19.089-157.3-19.089H219.472c-84.359 0-126.54 0-157.3 19.089a127 127 0 0 0-42.007 42.686Z" stroke="#fff" stroke-width="6"/><rect x="166.083" y="251.531" width="187" height="186" rx="24" stroke="#fff" stroke-width="3"/><rect x="1411.08" y="251.531" width="187" height="186" rx="24" stroke="#fff" stroke-width="3"/><path d="M181.083 51.031c0-6.351 5.148-11.5 11.5-11.5h28c6.351 0 11.5 5.149 11.5 11.5 0 6.352-5.149 11.5-11.5 11.5h-28c-6.352 0-11.5-5.148-11.5-11.5Zm1350.997 0c0-6.351 5.15-11.5 11.5-11.5h28c6.35 0 11.5 5.149 11.5 11.5 0 6.352-5.15 11.5-11.5 11.5h-28c-6.35 0-11.5-5.148-11.5-11.5Z" stroke="#fff" stroke-width="3"/><path d="M1411.08 493.031c0-10.217 8.29-18.5 18.5-18.5h56c10.22 0 18.5 8.283 18.5 18.5 0 10.218-8.28 18.5-18.5 18.5h-56c-10.21 0-18.5-8.282-18.5-18.5Zm-1150.997 0c0-10.217 8.282-18.5 18.5-18.5h56c10.217 0 18.5 8.283 18.5 18.5 0 10.218-8.283 18.5-18.5 18.5h-56c-10.218 0-18.5-8.282-18.5-18.5Z" stroke="#fff"/><path d="M259.083 550.031a3.5 3.5 0 0 1 3.5-3.5h14a3.5 3.5 0 1 1 0 7h-14a3.5 3.5 0 0 1-3.5-3.5Zm12 18a3.5 3.5 0 0 1 3.5-3.5h14a3.5 3.5 0 1 1 0 7h-14a3.5 3.5 0 0 1-3.5-3.5Zm14-18a3.5 3.5 0 0 1 3.5-3.5h14a3.5 3.5 0 1 1 0 7h-14a3.5 3.5 0 0 1-3.5-3.5Zm0 36a3.5 3.5 0 0 1 3.5-3.5h14a3.5 3.5 0 1 1 0 7h-14a3.5 3.5 0 0 1-3.5-3.5Zm26-36a3.5 3.5 0 0 1 3.5-3.5h14a3.5 3.5 0 1 1 0 7h-14a3.5 3.5 0 0 1-3.5-3.5Zm-14 18a3.5 3.5 0 0 1 3.5-3.5h14a3.5 3.5 0 1 1 0 7h-14a3.5 3.5 0 0 1-3.5-3.5Zm40-18a3.5 3.5 0 0 1 3.5-3.5h14a3.5 3.5 0 1 1 0 7h-14a3.5 3.5 0 0 1-3.5-3.5Zm-26 36a3.5 3.5 0 0 1 3.5-3.5h14a3.5 3.5 0 1 1 0 7h-14a3.5 3.5 0 0 1-3.5-3.5Zm12-18a3.5 3.5 0 0 1 3.5-3.5h28a3.5 3.5 0 1 1 0 7h-28a3.5 3.5 0 0 1-3.5-3.5Zm14 18a3.5 3.5 0 0 1 3.5-3.5h14a3.5 3.5 0 1 1 0 7h-14a3.5 3.5 0 0 1-3.5-3.5Zm1169.997-36c0-1.933-1.56-3.5-3.5-3.5h-14c-1.93 0-3.5 1.567-3.5 3.5s1.57 3.5 3.5 3.5h14c1.94 0 3.5-1.567 3.5-3.5Zm-12 18c0-1.933-1.56-3.5-3.5-3.5h-14c-1.93 0-3.5 1.567-3.5 3.5s1.57 3.5 3.5 3.5h14c1.94 0 3.5-1.567 3.5-3.5Zm-14-18c0-1.933-1.56-3.5-3.5-3.5h-14c-1.93 0-3.5 1.567-3.5 3.5s1.57 3.5 3.5 3.5h14c1.94 0 3.5-1.567 3.5-3.5Zm0 36c0-1.933-1.56-3.5-3.5-3.5h-14c-1.93 0-3.5 1.567-3.5 3.5s1.57 3.5 3.5 3.5h14c1.94 0 3.5-1.567 3.5-3.5Zm-26-36c0-1.933-1.56-3.5-3.5-3.5h-14c-1.93 0-3.5 1.567-3.5 3.5s1.57 3.5 3.5 3.5h14c1.94 0 3.5-1.567 3.5-3.5Zm14 18c0-1.933-1.56-3.5-3.5-3.5h-14c-1.93 0-3.5 1.567-3.5 3.5s1.57 3.5 3.5 3.5h14c1.94 0 3.5-1.567 3.5-3.5Zm-40-18c0-1.933-1.56-3.5-3.5-3.5h-14c-1.93 0-3.5 1.567-3.5 3.5s1.57 3.5 3.5 3.5h14c1.94 0 3.5-1.567 3.5-3.5Zm26 36c0-1.933-1.56-3.5-3.5-3.5h-14c-1.93 0-3.5 1.567-3.5 3.5s1.57 3.5 3.5 3.5h14c1.94 0 3.5-1.567 3.5-3.5Zm-12-18c0-1.933-1.56-3.5-3.5-3.5h-28c-1.93 0-3.5 1.567-3.5 3.5s1.57 3.5 3.5 3.5h28c1.94 0 3.5-1.567 3.5-3.5Zm-14 18c0-1.933-1.56-3.5-3.5-3.5h-14c-1.93 0-3.5 1.567-3.5 3.5s1.57 3.5 3.5 3.5h14c1.94 0 3.5-1.567 3.5-3.5Z" opacity=".5" stroke="#fff"/><circle opacity=".3" cx="1483.08" cy="149.531" r="82" stroke="#fff"/><circle cx="1483.08" cy="149.531" r="59" stroke="#fff" stroke-width="3"/><circle cx="1484.08" cy="149.531" r="41" stroke="#fff"/><circle cx="278.083" cy="149.531" r="41" stroke="#fff"/><circle cx="277.083" cy="149.531" r="59" stroke="#fff" stroke-width="3"/><circle opacity=".3" cx="277.083" cy="149.531" r="82" stroke="#fff"/><path d="M48.686 102.259c.48-1.642 2.014-2.728 3.725-2.728h24.871c4.48 0 6.721 0 8.432-.872a8 8 0 0 0 3.497-3.496c.871-1.711.871-3.951.871-8.432V61.86c0-1.711 1.086-3.245 2.728-3.725a65.027 65.027 0 0 1 18.273-2.604c6.344 0 12.475.91 18.272 2.604 1.642.48 2.728 2.014 2.728 3.725v24.871c0 4.48 0 6.72.871 8.432a7.998 7.998 0 0 0 3.497 3.496c1.711.872 3.951.872 8.432.872h24.871c1.711 0 3.245 1.086 3.725 2.728a65.012 65.012 0 0 1 2.604 18.272c0 6.344-.909 12.476-2.604 18.272-.48 1.643-2.014 2.728-3.725 2.728h-24.871c-4.481 0-6.721 0-8.432.872a8 8 0 0 0-3.497 3.496c-.871 1.712-.871 3.952-.871 8.432v24.872c0 1.711-1.086 3.245-2.728 3.725a65.047 65.047 0 0 1-18.272 2.603 65.049 65.049 0 0 1-18.273-2.603c-1.642-.48-2.728-2.014-2.728-3.725v-24.872c0-4.48 0-6.72-.871-8.432a8.002 8.002 0 0 0-3.497-3.496c-1.71-.872-3.951-.872-8.431-.872H52.41c-1.711 0-3.245-1.085-3.725-2.728a65.02 65.02 0 0 1-2.603-18.272c0-6.344.908-12.475 2.603-18.272Z" stroke="#fff" stroke-width="3"/><circle cx="1656.08" cy="69.531" r="26" stroke="#fff" stroke-width="3"/><circle cx="1604.08" cy="121.531" r="26" stroke="#fff" stroke-width="3"/><circle cx="1707.08" cy="121.531" r="26" stroke="#fff" stroke-width="3"/><circle cx="1656.08" cy="172.531" r="26" stroke="#fff" stroke-width="3"/><path d="M1654.56 79.531v-7.383l-6.66-12.523h4.08l3.91 7.588c.13.255.24.497.34.725.1.218.2.446.29.683h.08c.09-.237.19-.465.29-.683.1-.228.21-.47.34-.725l3.95-7.588h3.66l-6.57 12.414v7.492h-3.71Zm-7.79 103 7.12-19.974h3.91l7.15 19.974h-3.84l-4.91-14.424c-.11-.328-.2-.633-.27-.916-.08-.282-.14-.56-.21-.834h-.09c-.06.274-.12.552-.19.834-.08.283-.17.588-.28.916l-4.87 14.424h-3.52Zm3.7-4.621.81-2.707h8.97l.8 2.707h-10.58Zm-54.52-46.379 6.93-11.293h.6l4.98-8.613h3.67l-6.51 10.855h-.57l-5.36 9.051h-3.74Zm.32-19.906 4.17.014 5.06 8.586h.06l6.97 11.306h-4.2l-5.38-9.01h-.05l-6.63-10.896Zm104.66 19.906v-19.906h7.13c2.06 0 3.64.428 4.76 1.285 1.12.848 1.68 2.147 1.68 3.897 0 1.112-.25 2.028-.76 2.748-.5.72-1.14 1.212-1.9 1.476v.055c.95.264 1.73.797 2.34 1.6.61.802.91 1.863.91 3.185 0 1.796-.6 3.19-1.82 4.184-1.2.984-2.81 1.476-4.82 1.476h-7.52Zm3.63-2.666h3.57c1.12 0 1.95-.287 2.48-.861.53-.574.79-1.354.79-2.338 0-.975-.26-1.755-.79-2.338-.53-.583-1.36-.875-2.48-.875h-3.57v6.412Zm0-8.845h3.2c1.12 0 1.92-.251 2.41-.752.49-.511.74-1.222.74-2.133 0-.903-.25-1.595-.74-2.078-.49-.483-1.29-.725-2.41-.725h-3.2v5.688Z" fill="#fff"/><path stroke="#fff" d="M439.083 76.531h888v556h-888z"/><rect x="373.083" y="39.531" width="1016" height="629" rx="6" stroke="#fff" stroke-width="3"/><path d="M6.343 241.45c-.483-37.402-.844-65.423.694-87.67 1.538-22.242 4.973-38.668 12.058-52.888a131.5 131.5 0 0 1 57.549-58.296c14.127-7.267 30.508-10.914 52.727-12.739 22.226-1.825 50.249-1.826 87.654-1.826H1548.14c37.4 0 65.43 0 87.65 1.826 22.22 1.825 38.6 5.471 52.73 12.739a131.522 131.522 0 0 1 57.55 58.296c7.08 14.22 10.52 30.646 12.06 52.888 1.54 22.247 1.17 50.268.69 87.67l-.12 9.581h-59.64c-8.38 0-14.7 0-19.72.411-5.04.411-8.81 1.237-12.1 2.914a30.475 30.475 0 0 0-13.33 13.329c-1.68 3.29-2.51 7.068-2.92 12.102-.41 5.023-.41 11.34-.41 19.722v94.022c0 5.096 0 11.427.09 15.167 0 18.06-10.4 42.078-26.11 68.733-15.7 26.632-36.63 55.802-57.58 84.135-4.9 6.633-9.81 13.22-14.65 19.718-15.82 21.251-30.93 41.546-42.97 59.353-7.86 11.626-14.42 22.206-19.02 31.311-4.45 8.829-7.1 16.333-7.24 22.083H280.069c-.144-5.869-2.788-13.451-7.248-22.329-4.596-9.149-11.156-19.738-19.016-31.352-12.067-17.83-27.222-38.109-43.087-59.336a7353.43 7353.43 0 0 1-14.53-19.489c-20.947-28.229-41.879-57.304-57.575-83.951-15.708-26.668-26.112-50.811-26.114-69.204.083-3.664.083-9.887.083-14.833v-94.03c0-8.38 0-14.698-.41-19.72-.411-5.034-1.237-8.812-2.914-12.102a30.498 30.498 0 0 0-13.329-13.329c-3.29-1.677-7.069-2.503-12.102-2.914-5.023-.411-11.34-.411-19.721-.411H6.466l-.123-9.581Z" stroke="#fff"/><path d="M132.583 1.531c-32.5 0-65.5 9-81 33.5 24-24.5 86.5-27 110-27s123.5 3.5 121.5 0-10.5-6.5-19.5-6.5h-131Zm1497.027 0c32.5 0 65.5 9 81 33.5-24-24.5-86.5-27-110-27s-123.5 3.5-121.5 0 10.5-6.5 19.5-6.5h131Z" stroke="#fff" stroke-width="2"/></svg>
